X: 9
T: No_104_Song_During_Which_Old_Men_Dance.krn
N: Derived from No_104_Song_During_Which_Old_Men_Dance.krn
%%abc-version 2.0
%%abcx-abcm2ps-target-version 5.9.1 (29 Sep 2008)
%%abc-creator hum2abc beta
%%abcx-conversion-date 2019/03/15 08:35:44
%%humdrum-veritas 1282896218
%%humdrum-veritas-data 2321223811
%%linebreak <none>
%%barnumbers 0
L: 1/8
M: 5/8
K: B clef=bass
[K:clef=bass][M:5/8]z2z2C/C/ | 
C3/C/CB,3/B,/ ||  
[M:2/4]B,4 | 
F,F, F,/ z/ C/C/ ||  
[M:5/8]C3/C/CB,3/B,/ ||  
[M:2/4]B,4 | 
F,F, F, z ||  
[M:5/8]B,G,3/G,/B,G, ||  
[M:3/4]F,3/F,/F,4 ||  
[M:2/4]C,C, C,/ z/ D,/D,/ ||  
[M:5/8]D,3/D,/C,D,C, ||  
[M:2/4]B,,3/B,,/B,,2- ||  
[M:3/4]B,,2F,, z z B,,/B,,/ ||  
[M:5/8]B,,B,,G,,B,,G,, ||  
[M:2/4]F,,3/F,,/F,,2 | 
F,,2F,,2 |]  



